svgs/sharp-thin/expand-wide.svg

<svg xmlns="http://www.w3.org/2000/svg" viewBox="0 0 512 512"><!--! Font Awesome Pro 6.6.0 by @fontawesome - https://fontawesome.com License - https://fontawesome.com/license (Commercial License) Copyright 2024 Fonticons, Inc. --><path d="M120 64l8 0 0 16-8 0L16 80l0 104 0 8L0 192l0-8L0 72l0-8 8 0 112 0zM0 328l0-8 16 0 0 8 0 104 104 0 8 0 0 16-8 0L8 448l-8 0 0-8L0 328zM392 64l112 0 8 0 0 8 0 112 0 8-16 0 0-8 0-104L392 80l-8 0 0-16 8 0zM512 328l0 112 0 8-8 0-112 0-8 0 0-16 8 0 104 0 0-104 0-8 16 0 0 8z"/></svg>

<svg xmlns="http://www.w3.org/2000/svg" viewBox="0 0 512 512"><!--! Font Awesome Pro 6.5.2 by @fontawesome - https://fontawesome.com License - https://fontawesome.com/license (Commercial License) Copyright 2024 Fonticons, Inc. --><path d="M120 64h8V80h-8H16V184v8H0v-8V72 64H8 120zM0 328v-8H16v8V432H120h8v16h-8H8 0v-8V328zM392 64H504h8v8V184v8H496v-8V80H392h-8V64h8zM512 328V440v8h-8H392h-8V432h8H496V328v-8h16v8z"/></svg>
